X:267
T:Gubben Laugrens polska.
R:polska
S:Uppt. efter »Florsen» (mycket gammal).
O:Gotland, Burs
M:3/4
L:1/16
K:Dm
e2e2 e^cA^c e^cA^c|e2e2 e^cA^c e4|f2ef d2de f2fe|gfed ^cdec A4|
e2e2 e^cAc ecAc|e2e2 e^cAc e4|f2ef d2de f2ag|fed^c ^c4 d4::
f4 c2c2 A2c2|f3a gbeg g2f2|f2ef d2de f2fe|gfed ^cdc=B A4|
e2e2 e^cA^c e^cA^c|e2e2 e^cA^c e4|f2ef d2de f2ag|fed^c ^c4 d4:|

